X:1
T:Philadelphia New
T:F Major            Jacob French, 1789
T:Transcribed from The New American Melody, 1789.
T:Isaac Watts, 1719 (Psalm 18, Part 3)                   66. 86. (S. M.)
%%score [ 1 2 3 4 ]
L:1/8
Q:1/4=130
M:3/2
K:F
V:1 treble nm="Tr." snm="Tr."
V:2 treble nm="C." snm="C."
V:3 treble-8 nm="T." snm="T."
V:4 bass nm="B." snm="B."
V:1
"_1.  Let  eve     –    ry   crea     –   ture  join  To  praise      th'e   –    ter    –   nal    God;   Ye heav'nly hosts, the song       be – gin, And sound        his     name  a –  broad." F4 | %1
 A8 A4 | (c4 d4) c4 | c8 c4 | (c3 d e4) (d2 c2) | (f3 e) d8 | e8 z4 | f4 c4 c4 | c8 c4 | %9
 (d3 e f4) c4 | c8 c4 | (F3 G A4) (B2 A2) | d8 c4 | c12 | %14
[M:2/2] z4"_1.  Thou sun with golden beams,   And moon with paler rays;   Ye  starry lights, ye    twinkling    flames,  Shine   to  your  Maker's praise.  Thou" c4 |: %15
 f2 f2 e2 e2 | f6 ed | c2 c2 d2 d2 | d6 f2 | e2 e2 f2 f2 | c2 c2 de f2 | gf ed c2 c2 |1 c4 c4 :|2 %23
 c8 |] %24
V:2
"_2.  He  built       those  worlds      a – bove, And  fixed    their      won  – drous frame;  By his command they stand     or  move, And ev      –      er      speak  his  name." C4 | %1
 F8 F4 | (A4 B3 A) G4 | A8 A4 | (G4 A4) A4 | A8 G4 | G8 z4 | A4 A4 G4 | A8 F4 | (A3 G F4) G4 | %10
 A8 A4 | F8 (G2 A2) | (G4 F4) [EG]4 | [FA]12 | %14
[M:2/2] z4"_2.  By     all  his  works  a – bove   His      honors be expressed;  But saints that taste his sa – ving   love   Should  sing   his    praises  best.  By" F4 |: %15
 A2 A2 G2 G2 | A6 G2 | F2 F2 F2 F2 | F6 F2 | G2 G2 A2 A2 | A2 A2 B2 c2 | B2 AG F2 G2 |1 A4 F4 :|2 %23
 A8 |] %24
V:3
"_3.  U –  ni      –   ted   zeal         be shown His  won    –   drous    fame      to      raise:  God is the Lord; his name         a – lone  De – serves       our       endless  praise." F4 | %1
 (c4 d4) c4 | f8 e4 | f8 f4 | (e3 d c4) (f3 e) | (d3 c) =B8 | c8 z4 | c4 f4 e4 | f8 c4 | %9
 (f3 e d4) e4 | f8 f4 | (d4 c4) d4 | (B4 A4) G4 | F12 | %14
[M:2/2] z4"_3.  Let    nature  join  with    art,   And all pronounce him blest;  But saints, that dwell so near his heart,   Should  sing   his   praises  best.  Let" F4 |: %15
 c2 c2 c2 c>d | c6 cB | A2 A2 F2 F2 | B6 AB | c2 c2 c2 c2 | f>g f>g f2 fe | d2 cB A2 G2 |1 %22
 F4 F4 :|2 F8 |] %24
V:4
 F,4 | (F,3 E, D,4) [F,,F,]4 | ([F,,F,]4 [B,,B,]4) [C,C]4 | [F,,F,]8 [F,,F,]4 | %4
 ([C,C]3 [B,,B,] [A,,A,]4) [F,,F,]4 | [F,,F,]4 [G,,G,]8 | C,8 z4 | [F,,F,]4 [F,,F,]4 C,4 | %8
 [F,,F,]8 F,4 | (D,3 C, D,4) C,4 | [F,,F,]8 [F,,F,]4 | ([B,,B,]4 [A,,A,]4) ([G,,G,]2 [F,,F,]2) | %12
 B,,8 C,4 | F,,12 |[M:2/2] z4 [F,,F,]4 |: [F,,F,]2 [F,,F,]2 C,2 C,2 | [F,,F,]6 C,2 | %17
 [F,,F,]2 F,2 D,2 D,2 | B,,6 D,2 | C,2 C,2 [F,,F,]2 [F,,F,]2 | %20
 [F,,F,]2 [G,,G,]2 [B,,B,]2 [A,,A,]2 | [G,,G,]2 [A,,A,][B,,B,] [C,C]2 C,2 |1 [F,,F,]4 [F,,F,]4 :|2 %23
 [F,,F,]8 |] %24

